client/public/assets/icons/action/new_custom86.svg

<?xml version="1.0"?><svg xmlns="http://www.w3.org/2000/svg" width="52" height="52" viewBox="0 0 52 52"><g fill="#fff"><path d="m16.4 10h3.2c0.5 0 0.8-0.3 0.8-0.8v-2.4h11.2v2.4c0 0.5 0.3 0.8 0.8 0.8h3.2c0.5 0 0.8-0.3 0.8-0.8v-2.4c0-2.6-2.2-4.8-4.8-4.8h-11.2c-2.6 0-4.8 2.2-4.8 4.8v2.4c0 0.5 0.3 0.8 0.8 0.8z m28.8 4.8h-38.4c-2.6 0-4.8 2.2-4.8 4.8v25.6c0 2.6 2.2 4.8 4.8 4.8h38.4c2.6 0 4.8-2.2 4.8-4.8v-25.6c0-2.6-2.2-4.8-4.8-4.8z m-19.2 28.8c-6.2 0-11.2-5-11.2-11.2s5-11.2 11.2-11.2 11.2 5 11.2 11.2-5 11.2-11.2 11.2z m4.8-13.6h-2.4v-2.4c0-0.9-0.7-1.6-1.6-1.6h-1.6c-0.9 0-1.6 0.7-1.6 1.6v2.4h-2.4c-0.9 0-1.6 0.7-1.6 1.6v1.6c0 0.9 0.7 1.6 1.6 1.6h2.4v2.4c0 0.9 0.7 1.6 1.6 1.6h1.6c0.9 0 1.6-0.7 1.6-1.6v-2.4h2.4c0.9 0 1.6-0.7 1.6-1.6v-1.6c0-0.9-0.7-1.6-1.6-1.6z"></path></g></svg>

<?xml version="1.0" encoding="utf-8"?>
<!-- Generator: Adobe Illustrator 18.1.1, SVG Export Plug-In . SVG Version: 6.00 Build 0)  -->
<svg version="1.1" id="Layer_1" xmlns="http://www.w3.org/2000/svg" xmlns:xlink="http://www.w3.org/1999/xlink" x="0px" y="0px"
	 width="52px" height="52px" viewBox="0 0 52 52" enable-background="new 0 0 52 52" xml:space="preserve">
<g>
	<path fill="#FFFFFF" d="M16.4,10h3.2c0.5,0,0.8-0.3,0.8-0.8V6.8h11.2v2.4c0,0.5,0.3,0.8,0.8,0.8h3.2c0.5,0,0.8-0.3,0.8-0.8V6.8
		c0-2.6-2.2-4.8-4.8-4.8H20.4c-2.6,0-4.8,2.2-4.8,4.8v2.4C15.6,9.7,15.9,10,16.4,10z"/>
	<path fill="#FFFFFF" d="M45.2,14.8H6.8C4.2,14.8,2,17,2,19.6v25.6C2,47.8,4.2,50,6.8,50h38.4c2.6,0,4.8-2.2,4.8-4.8V19.6
		C50,17,47.8,14.8,45.2,14.8z M26,43.6c-6.2,0-11.2-5-11.2-11.2s5-11.2,11.2-11.2s11.2,5,11.2,11.2S32.2,43.6,26,43.6z"/>
	<path fill="#FFFFFF" d="M30.8,30h-2.4v-2.4c0-0.9-0.7-1.6-1.6-1.6h-1.6c-0.9,0-1.6,0.7-1.6,1.6V30h-2.4c-0.9,0-1.6,0.7-1.6,1.6v1.6
		c0,0.9,0.7,1.6,1.6,1.6h2.4v2.4c0,0.9,0.7,1.6,1.6,1.6h1.6c0.9,0,1.6-0.7,1.6-1.6v-2.4h2.4c0.9,0,1.6-0.7,1.6-1.6v-1.6
		C32.4,30.7,31.7,30,30.8,30z"/>
</g>
</svg>
